ProjectFiles/res/Operator1_ELEMENT_1.svg

<svg version="1.2" baseProfile="tiny" viewBox="0 0 32 32" xmlns:xlink="http://www.w3.org/1999/xlink" xmlns="http://www.w3.org/2000/svg">
<path style="fill:#ffffff;" d="M28.25,32H3.75005C3.29405,32,2.92505,31.631,2.92505,31.175C2.92505,23.62,8.79005,17.474,16,17.474C23.21,17.474,29.0751,23.62,29.0751,31.175C29.0751,31.631,28.706,32,28.25,32ZM4.60105,30.35H27.3981C26.9951,24.088,22.037,19.124,16,19.124C9.96305,19.124,5.00505,24.088,4.60105,30.35Z M15.7301,1.65C18.8971,1.65,21.4731,4.228,21.4731,7.396C21.4731,10.562,18.8971,13.138,15.7301,13.138C12.5651,13.138,9.99109,10.562,9.99109,7.396C9.99109,4.228,12.5661,1.65,15.7301,1.65ZM15.7301,0C11.6501,0,8.34009,3.316,8.34009,7.396C8.34009,11.477,11.6491,14.789,15.7301,14.789C19.8121,14.789,23.1241,11.478,23.1241,7.396C23.1241,3.316,19.8131,0,15.7301,0Z"/>
</svg>

<svg xmlns="http://www.w3.org/2000/svg" viewBox="0 0 32 32"><path d="M28.25 32H3.75a.825.825 0 0 1-.825-.825C2.925 23.62 8.79 17.474 16 17.474s13.075 6.146 13.075 13.701a.825.825 0 0 1-.825.825M4.601 30.35h22.797C26.995 24.088 22.037 19.124 16 19.124S5.005 24.088 4.601 30.35m11.13-28.7a5.75 5.75 0 0 1 5.742 5.746 5.75 5.75 0 0 1-5.743 5.742 5.747 5.747 0 0 1-5.739-5.742c0-3.168 2.575-5.746 5.74-5.746m0-1.65c-4.08 0-7.39 3.316-7.39 7.396a7.393 7.393 0 0 0 14.783 0A7.4 7.4 0 0 0 15.73 0" style="fill:#fff"/></svg>
